; G-Code generated by Simplify3D(R) Version 4.0.1
; Settings Summary
;   layerHeight,0.2
M190 S60
M104 S210 T0
M109 S210 T0
G21
G90
M82
G28
G92 E0
M900 0.6
; layer 1, Z = 0.300
; tool H0.300 W0.600
G1 Z0.300 F1000
G1 X10.496 Y-1.648 E0.4346
G1 X10.352 Y-1.743 E0.4470
G1 X10.060 Y-1.815 E0.4686
G92 E0
; layer 2, Z = 0.500
G1 Z0.500 F1000
G1 X8.063 Y-1.822 E0.6121
G1 X7.679 Y-1.804 E0.6397
G92 E0
; layer 3, Z = 0.700
G1 Z0.700 F1000
G1 X7.226 Y-1.653 E0.6743
G1 X7.069 Y-1.490 E0.6905
M106 S255
G1 X6.961 Y-1.241 E0.7100
T0
M107
M104 S0
M140 S0
G28 X0 Y0
M84
